X:1
T:Title
%%score { 1 | 2 }
L:1/8
Q:1/4=94
M:4/4
K:D
V:1 treble nm="Grand Piano"
V:2 bass 
V:1
 [FA]2 [DF][EG] [FA]2 FE | D2 D>E F4 | [CA]2 [CE][DF] [EG]2 [DF][CE] | %3
w: Benjamin~F.~Butts * * * * *|||
 [A,DF]2 [A,DF]>[A,EG] [DFA]4 | [DGB]2 [DGB][DGB] [DBd]2 [DAc][DGB] | [DFA]2 [DFA]>[DGB] [DFA]4 | %6
w: |||
 [F,D]2 [F,D][K:treble][A,CE] [A,DF] [DFA]2 [B,EG] | [DF]2 [A,DF]>[K:bass][G,CE] [F,D]4 | %8
w: ||
 [Fd]2 [Fd]>[Fd] c4 | B2 B>B [FA]4 | [EA]2 [CE][DF] [EG]2 [DF][CE] | [A,DF]2 [A,DF]>[A,EG] [DFA]4 | %12
w: ||||
 [DGB]2 [DGB][DGB] [DBd]3 [DGB] | [DFA]2 [A,DF]2[K:bass] [F,D]4 | %14
w: ||
 [F,D]2 [F,B,D][K:treble][A,CE] [DF] [DFA]2 [B,EG] | [DF]2 [A,CF]>[K:bass][G,CE] [F,D]4 |] %16
w: ||
V:2
 [D,A,]2 [D,A,][D,A,] [D,D]2 [D,A,D][D,G,C] | [D,F,]2 [D,F,]>[D,G,C] [D,A,D]4 | %2
 [A,,A,]2 [A,,A,][A,,A,] [A,,A,]2 [A,,A,][A,,A,] | D,2 D,>D, D,4 | G,2 G,G, G,2 G,G, | %5
 D,2 D,>D, D,4 | D,2 B,,A,, D, D,2 G, | A,2 A,,>A,, D,4 | [D,A,]2 [D,A,]>[D,A,][K:treble] [A,G]4 | %9
 [G,B,G]2 [G,DG]>[G,B,G][K:bass] [D,D]4 | [A,C]2 [A,,A,][A,,A,] [A,,A,]2 [A,,A,][A,,A,] | %11
 D,2 D,>D, D,4 | G,2 G,G, G,3 G, | D,2 D,2 D,4 | B,,2 B,,A,, D, D,2 G, | A,2 A,,>A,, D,4 |] %16

